X: 41917
T: Waiting For Janet
R: jig
M: 6/8
K: Gmajor
DEG|:"C"E2D DEG|"D"A2D DEG|"Em"B2A- AGE|
"C"GED DEG|"D"A2D DEG|"Em"ABD ABc-|"C"c2 B- BGE|
[1 "D"A3 DEG:|2 "D" A3-A3-|A3 ABd|:"G"B3 ABd|
"G/B"A2G"C"E2D|[M:9/8]DEG "D"A2D ABd|[M:6/8]"G"B3 ABd|
"G/B"F2E-"C"E2D|1 [M:9/8]DEG "D"A3 ABd:|2 [M:6/8]DEG A3||

